X: 22678
T: Lakes Of Sligo, The
R: polka
M: 2/4
K: Dmajor
F/E/|DF FG/A/|B>c BA|G>F GB|c>d cF/E/|
DF FG/A/|B>c d>c|B/A/G/F/ Bd|c2B|
f/e/|df B>c|d/c/d/e/ fe/d/|eg c>d|e/d/e/f/ gf/e/|
df cd|B>c d>c|B/A/G/F/ Bd|c2B:|

